dist/img/masks/s_services_mask_mob.svg

<svg width="291" height="215" viewBox="0 0 291 215" fill="none" xmlns="http://www.w3.org/2000/svg" xmlns:xlink="http://www.w3.org/1999/xlink">
<path fill-rule="evenodd" clip-rule="evenodd" d="M287.527 0H138.043C136.404 0 134.987 1.39092 134.646 3.33469L130.663 26.0764C130.322 28.0202 128.905 29.4111 127.267 29.4111H34.5164C32.8781 29.4111 31.461 30.802 31.1203 32.7458L0.0765106 209.915C-0.380175 212.534 1.26534 215 3.47266 215H178.669C180.308 215 181.725 213.609 182.066 211.665L186.049 188.924C186.39 186.98 187.807 185.589 189.445 185.589H256.487C258.125 185.589 259.543 184.198 259.883 182.254L290.923 5.08541C291.38 2.46592 289.735 0 287.527 0Z" fill="#FC00FF"/>
</svg>

<svg width="291" height="215" viewBox="0 0 291 215" fill="none" xmlns="http://www.w3.org/2000/svg" xmlns:xlink="http://www.w3.org/1999/xlink"><path fill-rule="evenodd" clip-rule="evenodd" d="M287.527 0H138.043c-1.639 0-3.056 1.39-3.397 3.335l-3.983 22.741c-.341 1.944-1.758 3.335-3.396 3.335h-92.75c-1.639 0-3.056 1.391-3.397 3.335L.077 209.915C-.38 212.534 1.265 215 3.473 215h175.196c1.639 0 3.056-1.391 3.397-3.335l3.983-22.741c.341-1.944 1.758-3.335 3.396-3.335h67.042c1.638 0 3.056-1.391 3.396-3.335l31.04-177.169C291.38 2.465 289.735 0 287.527 0z" fill="#FC00FF"/></svg>
